frontend/src/assets/images/hero-top-illustration.svg

<svg width="302" height="348" viewBox="0 0 302 348" fill="none" xmlns="http://www.w3.org/2000/svg">
<g clip-path="url(#clip0_248_1133)">
<path fill-rule="evenodd" clip-rule="evenodd" d="M76.9202 45.4398C77.2142 44.3598 76.8122 44.3078 76.5152 45.2998C76.4412 45.5071 76.3578 45.711 76.2652 45.9108C76.4588 45.4697 76.6115 45.0118 76.7212 44.5428V44.5398C76.8962 44.5728 77.1102 44.3938 77.3252 43.9518C77.4352 43.7288 77.5012 43.4318 77.5752 43.0708C77.6092 42.7088 77.6542 42.2768 77.5832 41.7928C77.3662 39.7898 76.4042 37.8968 74.9332 36.5718C73.4652 35.2368 71.4992 34.5258 69.5342 34.5598C67.5277 34.6031 65.6104 35.3974 64.1612 36.7858C62.6982 38.1618 61.7702 40.1018 61.5692 42.1038C61.3572 44.1088 61.8865 46.1222 63.0572 47.7638C64.1949 49.3638 65.8931 50.4769 67.8142 50.8818C69.6982 51.2848 71.7202 50.9138 73.3732 49.9118C75.0519 48.8933 76.3102 47.3071 76.9202 45.4408" fill="white"/>
<path fill-rule="evenodd" clip-rule="evenodd" d="M48.4953 61.0295C48.2293 62.0085 48.6453 62.0635 48.9173 61.1725C48.9843 60.9875 49.0613 60.8075 49.1443 60.6295C48.9685 61.0238 48.8306 61.434 48.7323 61.8545V61.8575C48.5503 61.8215 48.3343 61.9775 48.1223 62.3745C48.0143 62.5765 47.9483 62.8445 47.8783 63.1725C47.8453 63.5005 47.8043 63.8945 47.8743 64.3355C48.1079 66.1844 49.0116 67.8834 50.4143 69.1105C51.8113 70.3375 53.6713 71.0005 55.5243 70.9845C57.388 70.9744 59.1817 70.2729 60.5577 69.0158C61.9337 67.7588 62.7942 66.0357 62.9723 64.1805C63.1623 62.3555 62.6163 60.4785 61.5203 59.0215C60.4175 57.5485 58.8148 56.529 57.0133 56.1545C55.2279 55.7846 53.3689 56.0843 51.7903 56.9965C50.2351 57.8914 49.0625 59.3272 48.4953 61.0295Z" fill="white" fill-opacity="0.64"/>
<path fill-rule="evenodd" clip-rule="evenodd" d="M34.4553 73.062C35.9014 72.2267 36.9903 70.8893 37.5153 69.304C37.7623 68.392 37.3303 68.334 37.0783 69.154C37.0167 69.3225 36.9473 69.488 36.8703 69.65C37.0273 69.293 37.1573 68.919 37.2483 68.525V68.522C37.4363 68.56 37.6573 68.421 37.8693 68.054C37.9763 67.867 38.0453 67.617 38.1153 67.311C38.1503 67.005 38.1913 66.637 38.1253 66.225C37.908 64.4971 37.0639 62.909 35.7533 61.762C34.4483 60.615 32.7103 59.996 30.9793 60.012C29.2319 60.0263 27.5518 60.6876 26.2633 61.868C24.9876 63.0411 24.1908 64.6447 24.0263 66.37C23.8503 68.075 24.3623 69.826 25.3863 71.183C26.4157 72.5559 27.9111 73.5054 29.5913 73.853C31.2548 74.1951 32.986 73.9136 34.4553 73.062Z" fill="white" fill-opacity="0.48"/>
<path fill-rule="evenodd" clip-rule="evenodd" d="M15.5556 53.977C15.7656 53.197 15.3466 53.141 15.1326 53.833C15.0804 53.9738 15.022 54.1123 14.9576 54.248C15.0896 53.948 15.1986 53.632 15.2756 53.301V53.298C15.4576 53.335 15.6656 53.223 15.8636 52.911C15.9636 52.753 16.0286 52.539 16.0936 52.277C16.1286 52.015 16.1666 51.699 16.1106 51.345C15.9248 49.8617 15.2006 48.4984 14.0756 47.514C12.9556 46.529 11.4636 45.998 9.97863 46.012C8.48863 46.022 7.01563 46.602 5.93263 47.607C4.83978 48.6148 4.15809 49.991 4.01863 51.471C3.87897 52.9435 4.29605 54.4148 5.18763 55.595C6.07006 56.7693 7.35158 57.5803 8.79063 57.875C10.2135 58.1659 11.6936 57.9228 12.9486 57.192C14.1823 56.4761 15.1101 55.332 15.5556 53.977Z" fill="white" fill-opacity="0.32"/>
<path fill-rule="evenodd" clip-rule="evenodd" d="M11.0767 29.2579C11.2517 28.6099 10.8137 28.5469 10.6317 29.1099C10.5878 29.2236 10.5384 29.335 10.4837 29.4439C10.5957 29.1999 10.6867 28.9439 10.7487 28.6739V28.6729C10.9397 28.7129 11.1517 28.6299 11.3447 28.3759C11.5257 28.1189 11.6697 27.6709 11.5737 27.0709C11.3877 25.8389 10.6877 24.6589 9.64573 23.8189C8.60273 22.9719 7.22973 22.4989 5.87273 22.4849C4.51073 22.4659 3.17573 22.9259 2.20573 23.7509C1.72748 24.1473 1.33309 24.6351 1.04566 25.1858C0.758219 25.7365 0.583502 26.3389 0.531731 26.9579C0.424731 28.1799 0.855731 29.4449 1.67973 30.4319C2.49573 31.4259 3.71173 32.1369 5.00673 32.3989C6.30373 32.6719 7.67573 32.4769 8.77573 31.8969C9.88073 31.3219 10.7137 30.3619 11.0767 29.2579Z" fill="white" fill-opacity="0.24"/>
<path fill-rule="evenodd" clip-rule="evenodd" d="M23.6086 8.98311C23.7606 8.40211 23.3406 8.34511 23.1836 8.83811C23.1466 8.93811 23.1036 9.03411 23.0576 9.12911C23.1516 8.91511 23.2296 8.69111 23.2836 8.45511V8.45411C23.4656 8.49211 23.6676 8.42211 23.8506 8.19511C24.0246 7.96811 24.1656 7.56211 24.0976 7.02511C23.9597 5.90746 23.4151 4.87973 22.5676 4.13811C21.7123 3.39722 20.6152 2.99524 19.4836 3.00811C18.3602 3.01571 17.2799 3.44119 16.453 4.2017C15.6261 4.9622 15.112 6.00327 15.0106 7.12211C14.9096 8.22678 15.2261 9.3292 15.8976 10.2121C16.5603 11.087 17.5204 11.6889 18.5966 11.9041C19.6568 12.1154 20.7576 11.9285 21.6886 11.3791C22.6009 10.843 23.2842 9.99026 23.6086 8.98311Z" fill="white" fill-opacity="0.16"/>
<path fill-rule="evenodd" clip-rule="evenodd" d="M48.657 4.6541C48.772 4.2051 48.38 4.1521 48.259 4.5191C48.247 4.5511 48.227 4.5791 48.213 4.6121C48.26 4.4891 48.303 4.3631 48.333 4.2321V4.2301C48.503 4.2671 48.688 4.2221 48.853 4.0501C49.01 3.8781 49.135 3.5621 49.083 3.1421C48.9772 2.26994 48.5535 1.46742 47.893 0.888105C47.2258 0.310003 46.3697 -0.00313011 45.487 0.00810465C44.6116 0.016073 43.7704 0.349423 43.1272 0.943299C42.484 1.53717 42.0847 2.3491 42.007 3.2211C41.925 4.0761 42.187 4.9501 42.702 5.6211C43.2176 6.29781 43.9633 6.76208 44.798 6.9261C45.618 7.0911 46.488 6.9291 47.186 6.5091C47.8869 6.09193 48.41 5.43177 48.656 4.6541" fill="white" fill-opacity="0.08"/>
<path fill-rule="evenodd" clip-rule="evenodd" d="M63.3469 17.0075C63.2519 17.3885 63.6739 17.4455 63.7749 17.1535C63.7919 17.1085 63.8189 17.0685 63.8399 17.0255C63.7892 17.1425 63.7484 17.2636 63.7179 17.3875C63.623 17.3637 63.5238 17.3628 63.4285 17.3849C63.3333 17.407 63.2446 17.4514 63.1699 17.5145C63.0059 17.6555 62.8789 17.9275 62.9229 18.2905C63.0124 19.0415 63.3759 19.733 63.9439 20.2325C64.5109 20.7325 65.2639 21.0005 66.0139 20.9895C66.7663 20.9806 67.4884 20.692 68.0398 20.18C68.5912 19.668 68.9324 18.9692 68.9969 18.2195C69.0597 17.4835 68.8446 16.7507 68.3939 16.1655C67.9524 15.5899 67.3145 15.1969 66.6019 15.0615C65.9046 14.93 65.1833 15.0611 64.5769 15.4295C63.9873 15.7869 63.5495 16.3485 63.3469 17.0075Z" fill="white" fill-opacity="0.04"/>
<path fill-rule="evenodd" clip-rule="evenodd" d="M294.17 320.887C289.5 317.739 284.155 316.011 278.748 315.397C276.041 315.05 273.294 315.111 270.565 315.374L268.522 315.639L266.554 316.02C265.894 316.133 265.257 316.322 264.609 316.472C263.961 316.626 263.317 316.792 262.687 316.988C252.472 319.966 243.701 325.388 234.917 329.78C217.517 338.672 197.837 342.875 178.267 342.401C158.701 341.826 139.248 336.421 122.418 326.286L120.828 325.361L119.282 324.364L116.193 322.365L113.197 320.228L111.7 319.158L110.251 318.024L107.358 315.747L104.57 313.345C102.676 311.78 100.97 310.012 99.1682 308.345C95.7412 304.837 92.3742 301.249 89.3962 297.346C87.8262 295.458 86.4682 293.411 85.0162 291.434C84.3162 290.427 83.6732 289.382 82.9992 288.358C82.3322 287.328 81.6492 286.309 81.0552 285.236C78.2532 280.412 76.6852 281.191 79.4362 286.18C80.0162 287.287 80.6872 288.34 81.3422 289.404C82.0052 290.462 82.6362 291.544 83.3262 292.584C84.7562 294.634 86.0962 296.752 87.6482 298.716C90.5932 302.768 93.9352 306.514 97.3512 310.186C99.1452 311.936 100.851 313.786 102.746 315.437L105.538 317.969L108.439 320.377L109.895 321.577L111.401 322.713L114.418 324.984L117.535 327.119L119.097 328.183L120.705 329.178C137.722 340.044 157.751 346.218 178.081 347.283C198.401 348.265 219.146 344.288 237.561 335.201C246.695 330.756 255.267 325.658 264.398 323.083C268.984 321.761 273.472 321.195 278.02 321.743C282.534 322.25 286.96 323.724 290.588 326.161C294.065 328.544 296.06 330.866 297.522 332.515C298.298 333.325 298.832 334.008 299.369 334.432C299.901 334.858 300.379 335.044 300.763 334.945C301.147 334.846 301.437 334.459 301.593 333.739C301.743 333.021 301.816 331.944 301.451 330.616C301.367 330.256 301.274 329.899 301.171 329.544C301.061 329.166 300.873 328.807 300.701 328.409C300.51 327.995 300.312 327.584 300.105 327.177C299.89 326.745 299.585 326.358 299.297 325.923C298.161 324.163 296.392 322.464 294.17 320.887Z" fill="url(#paint0_linear_248_1133)"/>
</g>
<defs>
<linearGradient id="paint0_linear_248_1133" x1="78" y1="282" x2="97.1378" y2="6063.51" gradientUnits="userSpaceOnUse">
<stop stop-color="white"/>
<stop offset="1" stop-color="white" stop-opacity="0"/>
</linearGradient>
<clipPath id="clip0_248_1133">
<rect width="302" height="348" fill="white"/>
</clipPath>
</defs>
</svg>

<svg width="302" height="348" xmlns="http://www.w3.org/2000/svg"><defs><linearGradient x1="0%" y1="0%" y2="88.353%" id="a"><stop stop-color="#FFF" offset="0%"/><stop stop-color="#FFF" stop-opacity="0" offset="100%"/></linearGradient></defs><g fill="none" fill-rule="evenodd"><g fill="#FFF"><path d="M76.919 45.44c.294-1.08-.108-1.132-.405-.14a7.215 7.215 0 0 1-.25.611 7.85 7.85 0 0 0 .456-1.368v-.003c.175.033.389-.146.604-.588.11-.223.176-.52.25-.881.034-.362.079-.794.008-1.278-.217-2.003-1.179-3.896-2.65-5.221-1.468-1.335-3.434-2.046-5.399-2.012a8.017 8.017 0 0 0-5.373 2.226c-1.463 1.376-2.391 3.316-2.592 5.318a8.254 8.254 0 0 0 1.488 5.66 7.814 7.814 0 0 0 4.757 3.118c1.884.403 3.906.032 5.559-.97a8.214 8.214 0 0 0 3.547-4.471"/><path d="M48.497 61.03c-.266.979.15 1.034.422.143.067-.185.144-.365.227-.543a6.826 6.826 0 0 0-.412 1.225v.003c-.182-.036-.398.12-.61.517-.108.202-.174.47-.244.798-.033.328-.074.722-.004 1.163a7.612 7.612 0 0 0 2.54 4.775c1.397 1.227 3.257 1.89 5.11 1.874a7.523 7.523 0 0 0 7.448-6.804c.19-1.825-.356-3.702-1.452-5.159a7.55 7.55 0 0 0-4.507-2.867 7.428 7.428 0 0 0-5.223.842 7.323 7.323 0 0 0-3.295 4.032" fill-opacity=".64"/><path d="M34.452 73.065a6.814 6.814 0 0 0 3.06-3.758c.247-.912-.185-.97-.437-.15a5.814 5.814 0 0 1-.208.496c.157-.357.287-.731.378-1.125v-.003c.188.038.409-.101.621-.468.107-.187.176-.437.246-.743.035-.306.076-.674.01-1.086a7.11 7.11 0 0 0-2.372-4.463c-1.305-1.147-3.043-1.766-4.774-1.75a7.067 7.067 0 0 0-4.716 1.856 7.021 7.021 0 0 0-2.237 4.502c-.176 1.705.336 3.456 1.36 4.813a7.038 7.038 0 0 0 4.205 2.67 6.92 6.92 0 0 0 4.864-.791" fill-opacity=".48"/><path d="M15.556 53.978c.21-.78-.209-.836-.423-.144a5.167 5.167 0 0 1-.175.415c.132-.3.241-.616.318-.947v-.003c.182.037.39-.075.588-.387.1-.158.165-.372.23-.634.035-.262.073-.578.017-.932a6.098 6.098 0 0 0-2.035-3.831c-1.12-.985-2.612-1.516-4.097-1.502-1.49.01-2.963.59-4.046 1.595a6.025 6.025 0 0 0-1.914 3.864 5.915 5.915 0 0 0 1.169 4.124 6.017 6.017 0 0 0 3.603 2.28 5.91 5.91 0 0 0 4.158-.683 5.818 5.818 0 0 0 2.607-3.215" fill-opacity=".32"/><path d="M11.076 29.26c.175-.648-.263-.711-.445-.148a3.8 3.8 0 0 1-.148.334c.112-.244.203-.5.265-.77v-.001c.191.04.403-.043.596-.297.181-.257.325-.705.229-1.305-.186-1.232-.886-2.412-1.928-3.252-1.043-.847-2.416-1.32-3.773-1.334-1.362-.019-2.697.441-3.667 1.266A4.671 4.671 0 0 0 .531 26.96c-.107 1.222.324 2.487 1.148 3.474.816.994 2.032 1.705 3.327 1.967 1.297.273 2.669.078 3.769-.502 1.105-.575 1.938-1.535 2.301-2.639" fill-opacity=".24"/><path d="M23.609 8.986c.152-.581-.268-.638-.425-.145-.037.1-.08.196-.126.291.094-.214.172-.438.226-.674v-.001c.182.038.384-.032.567-.259.174-.227.315-.633.247-1.17a4.582 4.582 0 0 0-1.53-2.887 4.63 4.63 0 0 0-3.084-1.13 4.522 4.522 0 0 0-4.473 4.114 4.437 4.437 0 0 0 .887 3.09 4.49 4.49 0 0 0 2.699 1.692 4.394 4.394 0 0 0 3.092-.525 4.313 4.313 0 0 0 1.92-2.396" fill-opacity=".16"/><path d="M48.657 4.656c.115-.449-.277-.502-.398-.135-.012.032-.032.06-.046.093.047-.123.09-.249.12-.38v-.002c.17.037.355-.008.52-.18.157-.172.282-.488.23-.908A3.57 3.57 0 0 0 47.893.89a3.604 3.604 0 0 0-2.406-.88 3.526 3.526 0 0 0-3.48 3.213c-.082.855.18 1.729.695 2.4a3.478 3.478 0 0 0 2.096 1.305c.82.165 1.69.003 2.388-.417a3.326 3.326 0 0 0 1.47-1.855" fill-opacity=".08"/><path d="M63.347 17.009c-.095.381.327.438.428.146.017-.045.044-.085.065-.128a2.285 2.285 0 0 0-.122.362.617.617 0 0 0-.548.127c-.164.141-.291.413-.247.776a3.07 3.07 0 0 0 1.021 1.942c.567.5 1.32.768 2.07.757a3.03 3.03 0 0 0 2.983-2.77 2.954 2.954 0 0 0-.603-2.054 2.953 2.953 0 0 0-1.792-1.104 2.875 2.875 0 0 0-2.025.368 2.812 2.812 0 0 0-1.23 1.578" fill-opacity=".04"/></g><path d="M216.17 38.887c-4.67-3.148-10.015-4.876-15.422-5.49-2.707-.347-5.454-.286-8.183-.023l-2.043.265-1.968.381c-.66.113-1.297.302-1.945.452-.648.154-1.292.32-1.922.516-10.215 2.978-18.986 8.4-27.77 12.792-17.4 8.892-37.08 13.095-56.65 12.621-19.566-.575-39.019-5.98-55.849-16.115l-1.59-.925-1.546-.997-3.089-1.999-2.996-2.137-1.497-1.07-1.449-1.134-2.893-2.277-2.788-2.402c-1.894-1.565-3.6-3.333-5.402-5-3.427-3.508-6.794-7.096-9.772-10.999-1.57-1.888-2.928-3.935-4.38-5.912-.7-1.007-1.343-2.052-2.017-3.076-.667-1.03-1.35-2.049-1.944-3.122-2.802-4.824-4.37-4.045-1.619.944.58 1.107 1.251 2.16 1.906 3.224.663 1.058 1.294 2.14 1.984 3.18 1.43 2.05 2.77 4.168 4.322 6.132 2.945 4.052 6.287 7.798 9.703 11.47 1.794 1.75 3.5 3.6 5.395 5.251l2.792 2.532 2.901 2.408 1.456 1.2 1.506 1.136 3.017 2.271 3.117 2.135 1.562 1.064 1.608.995c17.017 10.866 37.046 17.04 57.376 18.105 20.32.982 41.065-2.995 59.48-12.082 9.134-4.445 17.706-9.543 26.837-12.118 4.586-1.322 9.074-1.888 13.622-1.34 4.514.507 8.94 1.981 12.568 4.418 3.477 2.383 5.472 4.705 6.934 6.354.776.81 1.31 1.493 1.847 1.917.532.426 1.01.612 1.394.513.384-.099.674-.486.83-1.206.15-.718.223-1.795-.142-3.123a21.669 21.669 0 0 0-.28-1.072c-.11-.378-.298-.737-.47-1.135a36.352 36.352 0 0 0-.596-1.232c-.215-.432-.52-.819-.808-1.254-1.136-1.76-2.906-3.459-5.128-5.036" transform="translate(78 282)" fill="url(#a)"/></g></svg>
